X:14678
T: Ruzmarin
O: Croatia
Z: John Chambers <jc@eddie.mit.edu> http://eddie.mit.edu/~jc/music/
M: 2/4
L: 1/8
K: G
|: "G"[d2B] [^c^A][dB] | "C"[e3c] [dB] | [ec][dB] [cA][BG] | "D7"[c2A] "G"[B2G] \
|     [d2B] [gc][=fd] | "C"[e3c] [dB] | [ec][dB] [cA][BG] | "D7"[c2A] "G"[B2G] ||
|| "G"[d2B] [cA][BG] | "D7"[AF][BG] [c2A] | "G"[B/G][c/A][dB] [BG][GD] | "D7"[AF][BG] [c2A] \
|  "G"[d2B] [cA][BG] | "D7"[AF][BG] [c2A] | "G"[B/G][c/A][dB] "A7"[BG][GE] | "D"[A2D] [A2D] :|
